svgs/sharp-regular/e.svg

<svg xmlns="http://www.w3.org/2000/svg" viewBox="0 0 320 512"><!--! Font Awesome Pro 6.6.0 by @fontawesome - https://fontawesome.com License - https://fontawesome.com/license (Commercial License) Copyright 2024 Fonticons, Inc. --><path d="M24 32L0 32 0 56 0 256 0 456l0 24 24 0 272 0 24 0 0-48-24 0L48 432l0-160 184 0 24 0 0-48-24 0L48 224 48 80l248 0 24 0 0-48-24 0L24 32z"/></svg>

<svg xmlns="http://www.w3.org/2000/svg" viewBox="0 0 320 512"><!--! Font Awesome Pro 6.4.0 by @fontawesome - https://fontawesome.com License - https://fontawesome.com/license (Commercial License) Copyright 2023 Fonticons, Inc. --><path d="M24 32H0V56 256 456v24H24 296h24V432H296 48V272H232h24V224H232 48V80H296h24V32H296 24z"/></svg>
